material/.icons/material/dog-side.svg

<svg xmlns="http://www.w3.org/2000/svg" viewBox="0 0 24 24"><path d="M19 3l-4 4 3 3 1-1 1 1 2-2-3-3V3M3 7L2 8l3 3v3l-1 1v6h2v-3l2-3h7v6h2V11l-3-3-1 1H5L3 7z"/></svg>

<?xml version="1.0" encoding="UTF-8"?><!DOCTYPE svg PUBLIC "-//W3C//DTD SVG 1.1//EN" "http://www.w3.org/Graphics/SVG/1.1/DTD/svg11.dtd"><svg xmlns="http://www.w3.org/2000/svg" xmlns:xlink="http://www.w3.org/1999/xlink" version="1.1" id="mdi-dog-side" width="24" height="24" viewBox="0 0 24 24"><path d="M19,3L15,7L18,10L19,9L20,10L22,8L19,5V3M3,7L2,8L5,11V14L4,15V21H6V18L8,15H15V21H17V11L14,8L13,9H5L3,7Z" /></svg>
